assets/sonr-icons/database.svg

<svg xmlns="http://www.w3.org/2000/svg" width="24" height="24" fill="none" viewBox="0 0 24 24"><path fill="#000" fill-rule="evenodd" d="M12 1.43994C9.53956 1.43994 7.2723 1.77083 5.58694 2.33257C4.74927 2.61177 4.00213 2.96541 3.44468 3.40477C2.898 3.83565 2.39999 4.46207 2.39999 5.27994V18.7199C2.39999 19.5354 2.89258 20.162 3.43875 20.5948C3.99447 21.0352 4.73965 21.3891 5.57602 21.6683C7.25868 22.23 9.52633 22.5599 12 22.5599C14.4737 22.5599 16.7413 22.23 18.424 21.6683C19.2603 21.3891 20.0055 21.0352 20.5612 20.5948C21.1074 20.162 21.6 19.5354 21.6 18.7199V5.27994C21.6 4.46207 21.102 3.83565 20.5553 3.40477C19.9979 2.96541 19.2507 2.61177 18.413 2.33257C16.7277 1.77083 14.4604 1.43994 12 1.43994ZM4.32294 5.26512C4.31998 5.27485 4.31999 5.28019 4.31999 5.28019C4.31999 5.28019 4.32015 5.2856 4.32294 5.29476C4.32621 5.30549 4.33426 5.32664 4.3537 5.35831C4.39445 5.4247 4.47754 5.5245 4.63318 5.64718C4.95011 5.89697 5.46821 6.1639 6.19405 6.40582C7.63569 6.88633 9.68843 7.19994 12 7.19994C14.3116 7.19994 16.3643 6.88633 17.8059 6.40582C18.5318 6.1639 19.0499 5.89697 19.3668 5.64718C19.5224 5.5245 19.6055 5.4247 19.6463 5.35831C19.6657 5.32664 19.6738 5.30549 19.677 5.29476C19.6799 5.28549 19.68 5.27994 19.68 5.27994C19.68 5.27994 19.6801 5.27509 19.677 5.26512C19.6738 5.25439 19.6657 5.23324 19.6463 5.20157C19.6055 5.13518 19.5224 5.03538 19.3668 4.9127C19.0499 4.66291 18.5318 4.39599 17.8059 4.15406C16.3643 3.67355 14.3116 3.35994 12 3.35994C9.68843 3.35994 7.63569 3.67355 6.19405 4.15406C5.46821 4.39599 4.95011 4.66291 4.63318 4.9127C4.47754 5.03538 4.39445 5.13518 4.3537 5.20157C4.33426 5.23324 4.32621 5.25439 4.32294 5.26512ZM4.32327 12.0174C4.32008 12.0068 4.31999 11.9999 4.31999 11.9999V7.70569C4.70516 7.90265 5.13274 8.07592 5.58694 8.22731C7.2723 8.78905 9.53956 9.11994 12 9.11994C14.4604 9.11994 16.7277 8.78905 18.413 8.22731C18.8672 8.07592 19.2948 7.90265 19.68 7.70569V11.9999C19.68 11.9999 19.6799 12.0068 19.6767 12.0174C19.6733 12.0287 19.6651 12.0501 19.6458 12.0818C19.6053 12.1482 19.523 12.2478 19.3688 12.37C19.0545 12.6191 18.5397 12.8855 17.816 13.1271C16.3787 13.6069 14.3263 13.9199 12 13.9199C9.67366 13.9199 7.62131 13.6069 6.18397 13.1271C5.46033 12.8855 4.94552 12.6191 4.63123 12.37C4.47697 12.2478 4.39464 12.1482 4.35418 12.0818C4.33485 12.0501 4.32669 12.0287 4.32327 12.0174ZM18.424 14.9483C18.8742 14.798 19.298 14.6261 19.68 14.4307V18.7199C19.68 18.7199 19.6799 18.7268 19.6767 18.7374C19.6733 18.7487 19.6651 18.7701 19.6458 18.8018C19.6053 18.8682 19.523 18.9678 19.3688 19.09C19.0545 19.3391 18.5397 19.6055 17.816 19.8471C16.3787 20.3269 14.3263 20.6399 12 20.6399C9.67366 20.6399 7.62131 20.3269 6.18397 19.8471C5.46033 19.6055 4.94552 19.3391 4.63123 19.09C4.47697 18.9678 4.39464 18.8682 4.35418 18.8018C4.33485 18.7701 4.32669 18.7487 4.32327 18.7374C4.32008 18.7268 4.31999 18.7199 4.31999 18.7199V14.4307C4.70203 14.6261 5.12582 14.798 5.57602 14.9483C7.25868 15.51 9.52633 15.8399 12 15.8399C14.4737 15.8399 16.7413 15.51 18.424 14.9483Z" clip-rule="evenodd"/></svg>

<svg xmlns="http://www.w3.org/2000/svg" width="24" height="24" fill="none"><path fill="currentColor" fill-rule="evenodd" d="M12 1.44c-2.46 0-4.728.33-6.413.893-.838.279-1.585.632-2.142 1.072C2.898 3.835 2.4 4.462 2.4 5.28v13.44c0 .815.493 1.442 1.039 1.875.555.44 1.3.794 2.137 1.073 1.683.562 3.95.892 6.424.892s4.741-.33 6.424-.892c.836-.279 1.582-.633 2.137-1.073.546-.433 1.039-1.06 1.039-1.875V5.28c0-.818-.498-1.444-1.045-1.875-.557-.44-1.304-.793-2.142-1.072C16.728 1.77 14.46 1.44 12 1.44M4.323 5.265l-.003.015q0 0 .003.015.003.016.03.063c.041.067.125.167.28.29.317.249.835.516 1.561.758 1.442.48 3.494.794 5.806.794s4.364-.314 5.806-.794c.726-.242 1.244-.509 1.56-.759.156-.123.24-.222.28-.289a.3.3 0 0 0 .031-.063l.003-.015-.003-.015a.3.3 0 0 0-.03-.063 1.2 1.2 0 0 0-.28-.29c-.317-.25-.835-.516-1.561-.758-1.442-.48-3.494-.794-5.806-.794s-4.364.314-5.806.794c-.726.242-1.244.509-1.56.759a1.2 1.2 0 0 0-.28.289.3.3 0 0 0-.031.063m0 6.752Q4.32 12.001 4.32 12V7.706c.385.197.813.37 1.267.521C7.272 8.79 9.54 9.12 12 9.12s4.728-.33 6.413-.893a9 9 0 0 0 1.267-.521V12q0 .001-.003.017a.3.3 0 0 1-.031.065c-.04.066-.123.166-.277.288-.314.25-.83.516-1.553.757-1.437.48-3.49.793-5.816.793s-4.379-.313-5.816-.793c-.724-.242-1.238-.508-1.553-.757a1.2 1.2 0 0 1-.277-.288.3.3 0 0 1-.03-.065m14.101 2.931c.45-.15.874-.322 1.256-.517v4.289q0 .001-.003.017a.3.3 0 0 1-.031.065c-.04.066-.123.166-.277.288-.314.25-.83.515-1.553.757-1.437.48-3.49.793-5.816.793s-4.379-.313-5.816-.793c-.724-.242-1.238-.508-1.553-.757a1.2 1.2 0 0 1-.277-.288.3.3 0 0 1-.03-.065l-.004-.017v-4.29c.382.196.806.368 1.256.518 1.683.562 3.95.892 6.424.892s4.741-.33 6.424-.892" clip-rule="evenodd"/></svg>
